icon-themes/sifr_svg/cmd/lc_starshapes.bang.svg

<svg viewBox="0 0 24 24" xmlns="http://www.w3.org/2000/svg"><g fill="#555753"><path d="m14.308594 1.0019531a.97609761.97609761 0 0 0 -.933594.6054688l-.947266 2.3125-.466796-1.3769531a.97609761.97609761 0 0 0 -1.863282.046875l-.6015622 2.125-1.3457032-1.7167969a.97609761.97609761 0 0 0 -1.6308594 1.0585937l.8457032 1.59375-1.3164063-.9355468a.97609761.97609761 0 0 0 -1.328125 1.40625l1.2929688 1.6113281-1.125-.4453125a.97609761.97609761 0 0 0 -.9746094 1.6640625l1.3339844 1.0839841-2.5214844.841797a.97609761.97609761 0 0 0 .1621094 1.890625l1.6972656.259766-2.0292969.960937a.97609761.97609761 0 0 0 .5722656 1.845703l3.6054688-.572265-1.2480469 2.625a.97609761.97609761 0 0 0 1.0859375 1.373047.97609761.97609761 0 0 0 1.4960938 1.208984l1.4277344-1.255859-.1738282.673828a.97609761.97609761 0 0 0 1.8437504.625l.779296-1.841797.615235 2.580078a.97609761.97609761 0 0 0 1.90625-.0332l.71875-3.578125 1.224609 1.490234a.97609761.97609761 0 0 0 1.69336-.886718l-.25586-.900391 1.712891 1.054687a.97609761.97609761 0 0 0 1.105469-1.607422l-1.300782-.998046 1.470704.289062a.97609761.97609761 0 0 0 .808593-1.710937l-2.193359-1.806644 1.457031-.339844a.97609761.97609761 0 0 0 -.273437-1.923828l-1.001954.05469 1.72461-1.3867191a.97609761.97609761 0 0 0 -.96875-1.6699239l-1.035156.4101562.580078-.6933593a.97609761.97609761 0 0 0 -.9375-1.5839844l-1.933594.3808594.783203-.8574219a.97609761.97609761 0 0 0 -1.390625-1.3691406l-1.716797 1.6171875.501953-3.0664063a.97609761.97609761 0 0 0 -.93164-1.1328125zm-3.189453 5.1445313.296875.875a.97609761.97609761 0 0 0 .939453.6601562l-.0078.044922a.97609761.97609761 0 0 0 1.632813.8691406l.298828-.28125a.97609761.97609761 0 0 0 .251953-.013672l2.128906-.4199218-1.273437 1.5175781a.97609761.97609761 0 0 0 .457031 1.5566405.97609761.97609761 0 0 0 .5625 1.478516.97609761.97609761 0 0 0 .279297.378906l.740234.609375-1.771484-.347656a.97609761.97609761 0 0 0 -1.066406 1.382812.97609761.97609761 0 0 0 -.910157.78125l-.248046 1.236328-.273438-1.146484a.97609761.97609761 0 0 0 -1.847656-.15625l-.101563.240234a.97609761.97609761 0 0 0 -.171875.01953l.01563-.02539a.97609761.97609761 0 0 0 -1.4902521-1.218749l-.2636719.232422a.97609761.97609761 0 0 0 -.59375-1.345703.97609761.97609761 0 0 0 -.6679688-1.496094l-.8535156-.130859.3710938-.123047a.97609761.97609761 0 0 0 .6210937-.634766l.5488281.21875a.97609761.97609761 0 0 0 1.3144528-1.1015624.97609761.97609761 0 0 0 .982422-1.4257812l-.443359-.8378906a.97609761.97609761 0 0 0 .27539-.4492188z"/><path d="m11 6c-2.216 0-4 1.784-4 4v3c0 2.216 1.784 4 4 4h3c2.216 0 4-1.784 4-4v-3c0-2.216-1.784-4-4-4z" opacity=".35"/></g></svg>

<svg xmlns="http://www.w3.org/2000/svg" viewBox="0 0 24 24">
  <path
     style="fill:#555753"
     d="M 14.308594,1.0019531 A 0.97609761,0.97609761 0 0 0 13.375,1.6074219 l -0.947266,2.3125 -0.466796,-1.3769531 a 0.97609761,0.97609761 0 0 0 -1.863282,0.046875 l -0.6015622,2.125 L 8.1503906,2.9980469 A 0.97609761,0.97609761 0 0 0 6.5195312,4.0566406 l 0.8457032,1.59375 -1.3164063,-0.9355468 a 0.97609761,0.97609761 0 0 0 -1.328125,1.40625 l 1.2929688,1.6113281 -1.125,-0.4453125 A 0.97609761,0.97609761 0 0 0 3.9140625,8.9511719 l 1.3339844,1.0839841 -2.5214844,0.841797 a 0.97609761,0.97609761 0 0 0 0.1621094,1.890625 l 1.6972656,0.259766 -2.0292969,0.960937 a 0.97609761,0.97609761 0 0 0 0.5722656,1.845703 l 3.6054688,-0.572265 -1.2480469,2.625 a 0.97609761,0.97609761 0 0 0 1.0859375,1.373047 0.97609761,0.97609761 0 0 0 1.4960938,1.208984 l 1.4277344,-1.255859 -0.1738282,0.673828 a 0.97609761,0.97609761 0 0 0 1.8437504,0.625 L 11.945312,18.669922 12.560547,21.25 a 0.97609761,0.97609761 0 0 0 1.90625,-0.0332 l 0.71875,-3.578125 1.224609,1.490234 a 0.97609761,0.97609761 0 0 0 1.69336,-0.886718 l -0.25586,-0.900391 1.712891,1.054687 a 0.97609761,0.97609761 0 0 0 1.105469,-1.607422 l -1.300782,-0.998046 1.470704,0.289062 a 0.97609761,0.97609761 0 0 0 0.808593,-1.710937 L 19.451172,12.5625 20.908203,12.222656 a 0.97609761,0.97609761 0 0 0 -0.273437,-1.923828 l -1.001954,0.05469 1.72461,-1.3867191 A 0.97609761,0.97609761 0 0 0 20.388672,7.296875 l -1.035156,0.4101562 0.580078,-0.6933593 a 0.97609761,0.97609761 0 0 0 -0.9375,-1.5839844 L 17.0625,5.8105469 17.845703,4.953125 A 0.97609761,0.97609761 0 0 0 16.455078,3.5839844 l -1.716797,1.6171875 0.501953,-3.0664063 a 0.97609761,0.97609761 0 0 0 -0.93164,-1.1328125 z m -3.189453,5.1445313 0.296875,0.875 a 0.97609761,0.97609761 0 0 0 0.939453,0.6601562 l -0.0078,0.044922 a 0.97609761,0.97609761 0 0 0 1.632813,0.8691406 l 0.298828,-0.28125 a 0.97609761,0.97609761 0 0 0 0.251953,-0.013672 l 2.128906,-0.4199218 -1.273437,1.5175781 a 0.97609761,0.97609761 0 0 0 0.457031,1.5566405 0.97609761,0.97609761 0 0 0 0.5625,1.478516 0.97609761,0.97609761 0 0 0 0.279297,0.378906 l 0.740234,0.609375 -1.771484,-0.347656 a 0.97609761,0.97609761 0 0 0 -1.066406,1.382812 0.97609761,0.97609761 0 0 0 -0.910157,0.78125 l -0.248046,1.236328 -0.273438,-1.146484 a 0.97609761,0.97609761 0 0 0 -1.847656,-0.15625 l -0.101563,0.240234 a 0.97609761,0.97609761 0 0 0 -0.171875,0.01953 l 0.01563,-0.02539 A 0.97609761,0.97609761 0 0 0 9.5605469,14.1875 L 9.296875,14.419922 A 0.97609761,0.97609761 0 0 0 8.703125,13.074219 0.97609761,0.97609761 0 0 0 8.0351562,11.578125 L 7.1816406,11.447266 7.5527344,11.324219 a 0.97609761,0.97609761 0 0 0 0.6210937,-0.634766 l 0.5488281,0.21875 A 0.97609761,0.97609761 0 0 0 10.037109,9.8066406 0.97609761,0.97609761 0 0 0 11.019531,8.3808594 L 10.576172,7.5429688 A 0.97609761,0.97609761 0 0 0 10.851562,7.09375 Z"
     />
  <path
     style="fill:#555753;opacity:0.35"
     d="M 11 6 C 8.784 6 7 7.784 7 10 L 7 13 C 7 15.216 8.784 17 11 17 L 14 17 C 16.216 17 18 15.216 18 13 L 18 10 C 18 7.784 16.216 6 14 6 L 11 6 z "
     />
</svg>
